X: 11464
T: Ebenezer
R: reel
M: 4/4
K: Gmajor
Bc|dBdB G2 Bc|dBdB G2 Bc|d2 g2 f2 g2|a3 a a2 AB|
cBAG FGAB|cBAG FGAf|gfed BG A2|G6:|
Bc|d2 g2 f2 g2|b4 b2 Bc|d2 g2 f2 g2|b4 b2 g2|
agbg ageg|agbg agef|gfed BG A2|G6:|

